X:442
T:He Played His Ukulele as the Ship went Down
M:2/2
L:1/8
Q:1/8=230
K:G
dc|B2 d2 G2 B2|A2 c2 E2 AG|F2 A2 D2 F2|GFGA B2 dc|
B2 d2 G2 B2|A2 c2 E2 AB|cBAG FDEF|G2 G2 G2 dc|
B2 d2 G2 B2|A2 c2 E2 AG|F2 A2 D2 F2|GFGA B2 dc|
B2 d2 G2 B2|A2 c2 E2 AB|cBAG FDEF|G2 G2 G4||
E2 G2 B2 e2|c4 B2 F2|E2 G2 c2 e2|^c>B c2 d2 d=c|
B2 d2 G2 B2|A2 c2 E2 AB|cBAG FDEF|G2 G2 G4|
E2 G2 B2 e2|c4 B2 F2|E2 G2 c2 e2|^c>B c2 d2 d=c|
B2 d2 G2 B2|A2 c2 E2 AB|cBAG FDEF|G2 G2 G4||
